X:1065
T:Wild West Waltz
C:Joe Buchanan's Scottish Tome - Page 647.2
I:647 2
Z:Carl Allison
C:Wendy Stuart
R:Waltz
L:1/4
M:3/4
K:C
GA | c>d _B/A/ | G2 e/f/ | g>a c | f2 g/f/ | e>c g/f/ | d>c G/A/ | _B>c B | A c G/A/ | 
c>d B/A/ | G2 e/f/ | g>a c | f2 g/f/ | e>c e/f/ | d>c _B | c3 | c d e | 
f>g a | g>c e/f/ | d>c _B | G2 A/B/ | _B>c B | A2 G/F/ | G3 | c d e | 
f2 g/a/ | g>c e/f/ | d>c _B | c2 G/A/ | _B2 c/B/ | A>c d | c3- | c3 |] 

